X: 2
T: Miller O’ Hirn, The
M: 4/4
L: 1/8
R: highland fling
K: GMaj
|: F/ |\
(3GGG g>e d2 B<G | E>AA>G E<GD>E |
(3GAG g<e d>BA>G | E>GF>A B<GE3/ :|
|: c/ |\
B<GG>d e<cc>B | c<AA>e f<dd>^c |
[1 d<GB>d e<cc>d |[1 (3ee/f/g a>f g<GG3/ :|
[2 (3dBG (3dga (3bag (3c’ba | (3gg/f/e (3def g<GG3/ |]
